X:418
T:Lady Grace Stewart
R:Strathspey
B:The Athole Collection
M:C
L:1/8
K:B Minor
B,<B B>c dB A2|B,<B B>c d<B d>f|ef/^g/ a>f e<A c2|B,<B B>c d<B d>f:|
d/e/f/g/ a>f e<A c2|d/e/f/g/ a>g f<d f>a|gb/g/ fa/f/ e<A c2|B,<B B>c d<B d>f|
d/e/f/g/ a>f e<A c2|d/e/f/g/ a>g f<d f>a|(3gbg (3faf (3efd (3cBA|B>cd>e f>Bd>f||

